X: 10075
T: MRS PEERY'S HORNPIPE
C: Bob McQuillen 10 April 93
B: Bob's Note Book 10 #75
%R: hornpipe, reel
Z: 2020 John Chambers <jc:trillian.mit.edu>
M: C
L: 1/8
K: G
de \
| gedc BGBA | GABG D2GB | ABcA FDGA | BcdB A2de |\
| gedc BGBA | GABG D2EF | GBdg fedc | B2G2 G2  :|
|: Bd \
| gbge d2Bd | gbge d2Bd | edBd gdBG | FGAB A2de |\
| gage dcBA | GBde d2cB | AGFE DFAc | B2G2 G2  :|
%%begintext align
%% Gordon Peery is a 
%% real nice man, a great piano player, and you know what
%% he has? He's got the neatest nicest wife named
%% Susay, and I just thought it would be fun for
%% her to have her own tune. So for what it's worth, here
%% it is!
%% With love to you all from Bob--
%%endtext
